svg/charges/bird/feather.svg

<?xml version="1.0" encoding="UTF-8" standalone="no"?>
<svg
   xmlns:dc="http://purl.org/dc/elements/1.1/"
   xmlns:cc="http://creativecommons.org/ns#"
   xmlns:rdf="http://www.w3.org/1999/02/22-rdf-syntax-ns#"
   xmlns:svg="http://www.w3.org/2000/svg"
   xmlns="http://www.w3.org/2000/svg"
   id="svg39"
   style="clip-rule:evenodd;fill-rule:evenodd"
   xml:space="preserve"
   version="1.1"
   viewBox="0 0 48.541267 296.34485"
   height="296.34485"
   width="48.541267"><metadata
   id="metadata45"><rdf:RDF><cc:Work
       rdf:about=""><dc:format>image/svg+xml</dc:format><dc:type
         rdf:resource="http://purl.org/dc/dcmitype/StillImage" /><dc:title></dc:title></cc:Work></rdf:RDF></metadata><defs
   id="defs43" />
    <g
   transform="rotate(38.511968,481.6608,131.6584)"
   id="body">
        <path
   style="fill:#ffff00;fill-rule:nonzero;stroke:#808080;stroke-width:1.33px"
   d="m 41.266,315.84 c 9.623,12.76 5.013,39.795 28.287,54.857 -2.54,0.813 -5.123,0.746 -7.757,-0.412 -2.366,-0.875 -1.731,-0.409 0.062,1.787 12.153,14.895 23.036,31.833 43.672,44.263 3.051,1.346 1.293,1.803 -0.878,2.314 -1.845,0.262 -4.193,0.067 -7.414,-0.923 -3.92,-1.5 -3.78,-1.329 -1.386,1.525 16.803,19.98 36,41.153 58.896,56.595 3.33,2.155 4.986,2.982 1.451,1.705 l -7.477,-3.195 c -1.381,-0.808 -2.548,-1.01 -0.598,0.803 10.853,10.318 19.907,23.756 33.229,32.359 4.181,2.506 8.133,4.26 12.009,5.445 1.505,0.344 2.673,0.754 1.793,1.51 -0.788,0.658 -2.889,1.518 -5.071,1.56 -2.226,-0.055 -0.532,0.574 -0.748,0.805 1.076,1.531 2.307,2.117 4.89,1.771 1.552,-0.238 1.94,-0.515 1.4,0.888 -0.638,1.113 -1.873,2.496 -2.975,3.491 -1.994,1.331 -1.407,1.373 0.46,1.701 4.116,0.337 6.954,-2.826 9.22,-5.269 -0.887,2.12 -0.197,3.135 -4.232,6.799 -1.45,1.514 0.377,1.348 1.469,1.024 1.859,-0.855 3.787,-2.795 4.21,-4.328 l 3.589,-4.982 c 1.645,0.147 3.692,0.275 6.436,0.369 2.268,-0.49 1.998,-0.465 0.082,-1.449 l -3.727,-1.913 c -1.573,-0.619 -1.083,-0.799 -0.087,-1.574 1.385,-1.079 2.739,-2.157 3.705,-3.216 0.89,-1.097 -0.118,-0.816 -0.118,-0.816 l -3.951,1.114 c -1.877,0.502 -0.518,-1.159 -0.106,-2.055 0.918,-2.039 1.395,-3.306 1.738,-4.336 1.231,-2.625 0.918,-2.204 -1.248,-0.782 l -2.782,1.826 c -1.16,0.714 -1.72,-0.424 -1.059,-1.029 0.666,-2.657 1.437,-3.398 1.881,-5.608 0.871,-2.505 -0.209,-2.466 -0.791,-0.873 -1.615,2.9 -3.085,4.189 -4.552,5.452 -1.577,0.212 -0.941,-0.89 -1.282,-2.593 -2.234,-11.23 -4.518,-23.924 -10.208,-33.505 -2.855,-3.987 -2.298,-5.291 -3.552,-0.715 -0.449,1.163 -0.88,2.969 -1.381,4.246 -1.112,3.065 -1.905,-1.487 -2.353,-2.7 -10.031,-26.119 -34.304,-58.931 -51.634,-76.455 -1.71,-1.534 -0.77,8.197 -2.459,6.607 -5.889,-15.965 -19.175,-33.458 -31.886,-45.653 -1,-1.47 -1.246,8.827 -2.593,7.69 C 76.891,327.013 59.586,331.671 41.266,315.839 Z"
   id="rect14549-7-5" />
        <path
   style="fill:none;stroke:#949494;stroke-width:0.93px"
   d="m 192.077,482.496 c 2.094,3.453 2.891,13.105 3.391,16.099"
   id="rect14038-1-7-48-24" />
        <path
   style="fill:none;stroke:#949494;stroke-width:0.93px"
   d="m 145.29,449.996 c 4.024,2.845 10.123,7.007 13.829,7.217"
   id="rect14038-1-7-4-9-4-8-8-4-5-8-62" />
        <path
   style="fill:none;stroke:#949494;stroke-width:0.93px"
   d="m 126.576,427.455 c 4.023,2.844 10.574,5.64 14.28,5.849"
   id="rect14038-1-7-4-9-4-8-8-4-5-7-2-9" />
        <path
   style="fill:none;stroke:#949494;stroke-width:0.93px"
   d="m 137.045,411.922 c 1.11,4.633 2.902,8.687 2.411,12.368"
   id="rect14038-1-7-4-9-4-8-8-4-5-5-1-1-4-33" />
        <path
   style="fill:none;stroke:#949494;stroke-width:0.93px"
   d="m 99.361,372.79 c 1.792,2.265 3.464,7.593 4.011,10.222"
   id="rect14038-1-7-4-9-4-8-8-4-5-7-7-6-1-4-5-6" />
        <path
   style="fill:none;stroke:#949494;stroke-width:0.93px"
   d="m 91.752,365.146 c 1.05,1.326 1.674,4.342 2.44,6.613"
   id="rect14038-1-7-4-9-4-8-8-4-5-7-7-6-1-4-2-5-8" />
        <path
   style="fill:none;stroke:#949494;stroke-width:0.93px"
   d="m 83.242,356.427 c 1.049,1.327 1.979,4.225 2.744,6.495"
   id="rect14038-1-7-4-9-4-8-8-4-5-7-7-6-1-4-2-3-1-2" />
        <path
   style="fill:none;stroke:#949494;stroke-width:0.93px"
   d="m 73.525,357.126 c 1.42,0.918 4.531,2.285 6.863,2.83"
   id="rect14038-1-7-4-9-4-8-8-4-5-7-7-6-1-4-2-2-7-8" />
        <path
   style="fill:none;stroke:#949494;stroke-width:0.93px"
   d="m 84.543,377.708 c 1.42,0.918 12.493,4.387 15.307,4.185"
   id="rect14038-1-7-4-9-4-8-8-4-5-7-7-6-1-4-2-2-2-1-6-1-9" />
        <path
   style="fill:none;stroke:#949494;stroke-width:0.93px"
   d="m 82.133,370.58 c 1.421,0.918 8.463,4.476 11.277,4.274"
   id="rect14038-1-7-4-9-4-8-8-4-5-7-7-6-1-4-2-2-2-1-1-6" />
        <path
   style="fill:none;stroke:#949494;stroke-width:0.93px"
   d="m 94.748,388.861 c 1.42,0.918 11.372,4.751 14.186,4.549"
   id="rect14038-1-7-4-9-4-8-8-4-5-7-7-6-1-4-2-2-2-1-6-8-52-19" />
        <path
   style="fill:none;stroke:#949494;stroke-width:0.93px"
   d="m 108.236,381.135 c 3.215,3.735 3.987,8.979 4.55,12.65"
   id="rect14038-1-7-4-9-4-8-8-4-5-7-7-6-1-7-54" />
        <path
   style="fill:none;stroke:#949494;stroke-width:0.93px"
   d="m 105.135,398.401 c 1.42,0.918 7.912,3.778 10.726,3.576"
   id="rect14038-1-7-4-9-4-8-8-4-5-7-7-6-1-4-2-2-2-1-6-8-5-7-6-3" />
        <path
   style="fill:none;stroke:#949494;stroke-width:0.93px"
   d="m 116.927,390.912 c 3.215,3.735 4.204,9.175 4.766,12.846"
   id="rect14038-1-7-4-9-4-8-8-4-5-7-7-6-14-86" />
        <path
   style="fill:none;stroke:#949494;stroke-width:0.93px"
   d="m 110.459,406.993 c 1.42,0.918 10.458,5.105 13.272,4.903"
   id="rect14038-1-7-4-9-4-8-8-4-5-7-7-6-1-4-2-2-2-1-6-8-5-2-0" />
        <path
   style="fill:none;stroke:#949494;stroke-width:0.93px"
   d="m 118.897,417.216 c 4.024,2.844 11.007,6.033 14.713,6.242"
   id="rect14038-1-7-4-9-4-8-8-4-5-7-7-3-01" />
        <path
   style="fill:none;stroke:#949494;stroke-width:0.93px"
   d="m 136.102,438.484 c 4.024,2.845 9.12,5.503 12.826,5.713"
   id="rect14038-1-7-4-9-4-8-8-4-5-5-2-7" />
        <path
   style="fill:none;stroke:#949494;stroke-width:0.93px"
   d="m 146.951,426.556 c 1.643,2.748 3.845,6.779 3.354,10.46"
   id="rect14038-1-7-4-9-4-8-8-4-5-5-1-1-5-21-41" />
        <path
   style="fill:none;stroke:#949494;stroke-width:0.93px"
   d="m 126.845,398.7 c 2.036,4.488 4.937,12.315 4.445,15.996"
   id="rect14038-1-7-4-9-4-8-8-4-5-5-1-6-4" />
        <path
   style="fill:none;stroke:#949494;stroke-width:0.93px"
   d="m 155.21,437.025 c 1.643,2.748 2.636,5.286 2.144,8.966"
   id="rect14038-1-7-4-9-4-8-8-4-5-5-1-1-5-2-8-1" />
        <path
   style="fill:none;stroke:#949494;stroke-width:0.93px"
   d="m 161.302,444.106 c 1.94,4.704 3.37,6.4 3.902,11.625"
   id="rect14038-1-7-4-9-4-8-2-1-5-1" />
        <path
   style="fill:none;stroke:#949494;stroke-width:0.93px"
   d="m 152.576,460.668 c 4.024,2.845 9.012,5.404 12.718,5.614"
   id="rect14038-1-7-4-9-4-8-8-4-7-1" />
        <path
   style="fill:none;stroke:#949494;stroke-width:0.93px"
   d="m 171.041,456.316 c 1.94,4.704 2.553,6.645 3.085,11.871"
   id="rect14038-1-7-4-9-4-8-2-6-8" />
        <path
   style="fill:none;stroke:#949494;stroke-width:0.93px"
   d="m 176.635,464.068 c 4.152,5.529 3.832,11.758 4.669,14.692"
   id="rect14038-1-7-4-0-1-4" />
        <path
   style="fill:none;stroke:#949494;stroke-width:0.93px"
   d="m 184.878,474.338 c 1.389,4.006 1.433,9.183 2.269,12.117"
   id="rect14038-1-7-4-8-40" />
        <path
   style="fill:none;stroke:#949494;stroke-width:0.93px"
   d="m 163.799,475.807 c 4.024,2.845 8.058,4.933 11.764,5.143"
   id="rect14038-1-7-4-9-4-8-9-8" />
        <path
   style="fill:none;stroke:#949494;stroke-width:0.93px"
   d="m 158.392,468.719 c 4.023,2.845 8.775,4.795 12.481,5.005"
   id="rect14038-1-7-4-9-4-8-8-2-9" />
        <path
   style="fill:none;stroke:#949494;stroke-width:0.93px"
   d="m 168.386,483.038 c 4.024,2.845 9.316,5.287 13.023,5.496"
   id="rect14038-1-7-4-9-4-7-8" />
        <path
   style="fill:none;stroke:#949494;stroke-width:0.93px"
   d="m 179.383,498.94 c 2.77,3.142 10.191,5.502 13.887,6.717"
   id="rect14038-1-9-4" />
        <path
   style="fill:none;stroke:#949494;stroke-width:0.93px"
   d="m 173.465,490.814 c 4.023,2.845 10.171,5.867 13.877,6.076"
   id="rect14038-1-7-4-9-5-3" />
        <g
   id="quilled">
            <path
   style="fill:#ff0000;fill-rule:nonzero;stroke:#806600;stroke-width:1.33px"
   d="m 209.17,532.661 c 0.156,2.155 6.838,7.85 5.235,-1.434 C 171.566,447.789 61.61,337.776 54.938,331.63 119.546,399.504 189.297,495.127 209.17,532.661 Z"
   id="rect14038-4-6" />
            <path
   style="fill:#ff0000;fill-rule:nonzero;stroke:#806600;stroke-width:1.33px"
   d="m 210.962,531.289 c -1.783,1.587 -1.172,2.991 -0.557,4.829 0.833,2.308 1.996,4.751 3.051,6.498 1.396,2.293 2.778,4.438 4.887,5.761 2.143,1.553 2.113,1.255 2.25,-0.916 0.307,-4.576 -1.023,-9.528 -3.293,-12.939 -2.113,-2.515 -3.474,-5.135 -6.338,-3.233 z"
   id="rect14552-3-9" />
        </g>
        <path
   style="fill:none"
   d="m 77.684,364.067 c 1.421,0.918 5.494,2.963 8.308,2.761"
   id="rect14038-1-7-4-9-4-8-8-4-5-7-7-6-1-4-2-2-2-12-3" />
        <path
   style="fill:#b3b3b3;fill-opacity:0.580392;fill-rule:nonzero"
   d="m 211.264,528.709 c -9.099,-15.776 -19.293,-33.101 -31.127,-49.427 -26.776,-36.939 -57.108,-73.61 -81.118,-99.791 -8.438,-9.201 -5.229,-6.138 -7.539,-8.266 13.283,13.954 -1.782,-1.856 11.769,13.385 29.165,32.802 55.275,68.765 76.745,98.444 12.648,17.485 22.042,34.448 29.532,46.847 0.223,-0.591 0.58,-0.251 1.738,-1.192 z"
   id="rect14038-6-3-9" />
    </g>
</svg>

<?xml version="1.0" encoding="UTF-8" standalone="no"?>
<!DOCTYPE svg PUBLIC "-//W3C//DTD SVG 1.1//EN" "http://www.w3.org/Graphics/SVG/1.1/DTD/svg11.dtd">
<svg width="100%" height="100%" viewBox="0 0 300 60" version="1.1" xmlns="http://www.w3.org/2000/svg" xmlns:xlink="http://www.w3.org/1999/xlink" xml:space="preserve" xmlns:serif="http://www.serif.com/" style="fill-rule:evenodd;clip-rule:evenodd;">
    <g id="body" transform="matrix(0.622678,-0.782478,0.782478,0.622678,-268.701,-133.705)">
        <path id="rect14549-7-5" d="M41.266,315.84C50.889,328.6 46.279,355.635 69.553,370.697C67.013,371.51 64.43,371.443 61.796,370.285C59.43,369.41 60.065,369.876 61.858,372.072C74.011,386.967 84.894,403.905 105.53,416.335C108.581,417.681 106.823,418.138 104.652,418.649C102.807,418.911 100.459,418.716 97.238,417.726C93.318,416.226 93.458,416.397 95.852,419.251C112.655,439.231 131.852,460.404 154.748,475.846C158.078,478.001 159.734,478.828 156.199,477.551L148.722,474.356C147.341,473.548 146.174,473.346 148.124,475.159C158.977,485.477 168.031,498.915 181.353,507.518C185.534,510.024 189.486,511.778 193.362,512.963C194.867,513.307 196.035,513.717 195.155,514.473C194.367,515.131 192.266,515.991 190.084,516.033C187.858,515.978 189.552,516.607 189.336,516.838C190.412,518.369 191.643,518.955 194.226,518.609C195.778,518.371 196.166,518.094 195.626,519.497C194.988,520.61 193.753,521.993 192.651,522.988C190.657,524.319 191.244,524.361 193.111,524.689C197.227,525.026 200.065,521.863 202.331,519.42C201.444,521.54 202.134,522.555 198.099,526.219C196.649,527.733 198.476,527.567 199.568,527.243C201.427,526.388 203.355,524.448 203.778,522.915L207.367,517.933C209.012,518.08 211.059,518.208 213.803,518.302C216.071,517.812 215.801,517.837 213.885,516.853L210.158,514.94C208.585,514.321 209.075,514.141 210.071,513.366C211.456,512.287 212.81,511.209 213.776,510.15C214.666,509.053 213.658,509.334 213.658,509.334L209.707,510.448C207.83,510.95 209.189,509.289 209.601,508.393C210.519,506.354 210.996,505.087 211.339,504.057C212.57,501.432 212.257,501.853 210.091,503.275L207.309,505.101C206.149,505.815 205.589,504.677 206.25,504.072C206.916,501.415 207.687,500.674 208.131,498.464C209.002,495.959 207.922,495.998 207.34,497.591C205.725,500.491 204.255,501.78 202.788,503.043C201.211,503.255 201.847,502.153 201.506,500.45C199.272,489.22 196.988,476.526 191.298,466.945C188.443,462.958 189,461.654 187.746,466.23C187.297,467.393 186.866,469.199 186.365,470.476C185.253,473.541 184.46,468.989 184.012,467.776C173.981,441.657 149.708,408.845 132.378,391.321C130.668,389.787 131.608,399.518 129.919,397.928C124.03,381.963 110.744,364.47 98.033,352.275C97.033,350.805 96.787,361.102 95.44,359.965C76.891,327.013 59.586,331.671 41.266,315.839L41.266,315.84Z" style="fill:rgb(255,255,0);fill-rule:nonzero;stroke:rgb(128,128,128);stroke-width:1.33px;"/>
        <path id="rect14038-1-7-48-24" d="M192.077,482.496C194.171,485.949 194.968,495.601 195.468,498.595" style="fill:none;stroke:rgb(148,148,148);stroke-width:0.93px;"/>
        <path id="rect14038-1-7-4-9-4-8-8-4-5-8-62" d="M145.29,449.996C149.314,452.841 155.413,457.003 159.119,457.213" style="fill:none;stroke:rgb(148,148,148);stroke-width:0.93px;"/>
        <path id="rect14038-1-7-4-9-4-8-8-4-5-7-2-9" d="M126.576,427.455C130.599,430.299 137.15,433.095 140.856,433.304" style="fill:none;stroke:rgb(148,148,148);stroke-width:0.93px;"/>
        <path id="rect14038-1-7-4-9-4-8-8-4-5-5-1-1-4-33" d="M137.045,411.922C138.155,416.555 139.947,420.609 139.456,424.29" style="fill:none;stroke:rgb(148,148,148);stroke-width:0.93px;"/>
        <path id="rect14038-1-7-4-9-4-8-8-4-5-7-7-6-1-4-5-6" d="M99.361,372.79C101.153,375.055 102.825,380.383 103.372,383.012" style="fill:none;stroke:rgb(148,148,148);stroke-width:0.93px;"/>
        <path id="rect14038-1-7-4-9-4-8-8-4-5-7-7-6-1-4-2-5-8" d="M91.752,365.146C92.802,366.472 93.426,369.488 94.192,371.759" style="fill:none;stroke:rgb(148,148,148);stroke-width:0.93px;"/>
        <path id="rect14038-1-7-4-9-4-8-8-4-5-7-7-6-1-4-2-3-1-2" d="M83.242,356.427C84.291,357.754 85.221,360.652 85.986,362.922" style="fill:none;stroke:rgb(148,148,148);stroke-width:0.93px;"/>
        <path id="rect14038-1-7-4-9-4-8-8-4-5-7-7-6-1-4-2-2-7-8" d="M73.525,357.126C74.945,358.044 78.056,359.411 80.388,359.956" style="fill:none;stroke:rgb(148,148,148);stroke-width:0.93px;"/>
        <path id="rect14038-1-7-4-9-4-8-8-4-5-7-7-6-1-4-2-2-2-1-6-1-9" d="M84.543,377.708C85.963,378.626 97.036,382.095 99.85,381.893" style="fill:none;stroke:rgb(148,148,148);stroke-width:0.93px;"/>
        <path id="rect14038-1-7-4-9-4-8-8-4-5-7-7-6-1-4-2-2-2-1-1-6" d="M82.133,370.58C83.554,371.498 90.596,375.056 93.41,374.854" style="fill:none;stroke:rgb(148,148,148);stroke-width:0.93px;"/>
        <path id="rect14038-1-7-4-9-4-8-8-4-5-7-7-6-1-4-2-2-2-1-6-8-52-19" d="M94.748,388.861C96.168,389.779 106.12,393.612 108.934,393.41" style="fill:none;stroke:rgb(148,148,148);stroke-width:0.93px;"/>
        <path id="rect14038-1-7-4-9-4-8-8-4-5-7-7-6-1-7-54" d="M108.236,381.135C111.451,384.87 112.223,390.114 112.786,393.785" style="fill:none;stroke:rgb(148,148,148);stroke-width:0.93px;"/>
        <path id="rect14038-1-7-4-9-4-8-8-4-5-7-7-6-1-4-2-2-2-1-6-8-5-7-6-3" d="M105.135,398.401C106.555,399.319 113.047,402.179 115.861,401.977" style="fill:none;stroke:rgb(148,148,148);stroke-width:0.93px;"/>
        <path id="rect14038-1-7-4-9-4-8-8-4-5-7-7-6-14-86" d="M116.927,390.912C120.142,394.647 121.131,400.087 121.693,403.758" style="fill:none;stroke:rgb(148,148,148);stroke-width:0.93px;"/>
        <path id="rect14038-1-7-4-9-4-8-8-4-5-7-7-6-1-4-2-2-2-1-6-8-5-2-0" d="M110.459,406.993C111.879,407.911 120.917,412.098 123.731,411.896" style="fill:none;stroke:rgb(148,148,148);stroke-width:0.93px;"/>
        <path id="rect14038-1-7-4-9-4-8-8-4-5-7-7-3-01" d="M118.897,417.216C122.921,420.06 129.904,423.249 133.61,423.458" style="fill:none;stroke:rgb(148,148,148);stroke-width:0.93px;"/>
        <path id="rect14038-1-7-4-9-4-8-8-4-5-5-2-7" d="M136.102,438.484C140.126,441.329 145.222,443.987 148.928,444.197" style="fill:none;stroke:rgb(148,148,148);stroke-width:0.93px;"/>
        <path id="rect14038-1-7-4-9-4-8-8-4-5-5-1-1-5-21-41" d="M146.951,426.556C148.594,429.304 150.796,433.335 150.305,437.016" style="fill:none;stroke:rgb(148,148,148);stroke-width:0.93px;"/>
        <path id="rect14038-1-7-4-9-4-8-8-4-5-5-1-6-4" d="M126.845,398.7C128.881,403.188 131.782,411.015 131.29,414.696" style="fill:none;stroke:rgb(148,148,148);stroke-width:0.93px;"/>
        <path id="rect14038-1-7-4-9-4-8-8-4-5-5-1-1-5-2-8-1" d="M155.21,437.025C156.853,439.773 157.846,442.311 157.354,445.991" style="fill:none;stroke:rgb(148,148,148);stroke-width:0.93px;"/>
        <path id="rect14038-1-7-4-9-4-8-2-1-5-1" d="M161.302,444.106C163.242,448.81 164.672,450.506 165.204,455.731" style="fill:none;stroke:rgb(148,148,148);stroke-width:0.93px;"/>
        <path id="rect14038-1-7-4-9-4-8-8-4-7-1" d="M152.576,460.668C156.6,463.513 161.588,466.072 165.294,466.282" style="fill:none;stroke:rgb(148,148,148);stroke-width:0.93px;"/>
        <path id="rect14038-1-7-4-9-4-8-2-6-8" d="M171.041,456.316C172.981,461.02 173.594,462.961 174.126,468.187" style="fill:none;stroke:rgb(148,148,148);stroke-width:0.93px;"/>
        <path id="rect14038-1-7-4-0-1-4" d="M176.635,464.068C180.787,469.597 180.467,475.826 181.304,478.76" style="fill:none;stroke:rgb(148,148,148);stroke-width:0.93px;"/>
        <path id="rect14038-1-7-4-8-40" d="M184.878,474.338C186.267,478.344 186.311,483.521 187.147,486.455" style="fill:none;stroke:rgb(148,148,148);stroke-width:0.93px;"/>
        <path id="rect14038-1-7-4-9-4-8-9-8" d="M163.799,475.807C167.823,478.652 171.857,480.74 175.563,480.95" style="fill:none;stroke:rgb(148,148,148);stroke-width:0.93px;"/>
        <path id="rect14038-1-7-4-9-4-8-8-2-9" d="M158.392,468.719C162.415,471.564 167.167,473.514 170.873,473.724" style="fill:none;stroke:rgb(148,148,148);stroke-width:0.93px;"/>
        <path id="rect14038-1-7-4-9-4-7-8" d="M168.386,483.038C172.41,485.883 177.702,488.325 181.409,488.534" style="fill:none;stroke:rgb(148,148,148);stroke-width:0.93px;"/>
        <path id="rect14038-1-9-4" d="M179.383,498.94C182.153,502.082 189.574,504.442 193.27,505.657" style="fill:none;stroke:rgb(148,148,148);stroke-width:0.93px;"/>
        <path id="rect14038-1-7-4-9-5-3" d="M173.465,490.814C177.488,493.659 183.636,496.681 187.342,496.89" style="fill:none;stroke:rgb(148,148,148);stroke-width:0.93px;"/>
        <g id="quilled">
            <path id="rect14038-4-6" d="M209.17,532.661C209.326,534.816 216.008,540.511 214.405,531.227C171.566,447.789 61.61,337.776 54.938,331.63C119.546,399.504 189.297,495.127 209.17,532.661Z" style="fill:rgb(255,0,0);fill-rule:nonzero;stroke:rgb(128,102,0);stroke-width:1.33px;"/>
            <path id="rect14552-3-9" d="M210.962,531.289C209.179,532.876 209.79,534.28 210.405,536.118C211.238,538.426 212.401,540.869 213.456,542.616C214.852,544.909 216.234,547.054 218.343,548.377C220.486,549.93 220.456,549.632 220.593,547.461C220.9,542.885 219.57,537.933 217.3,534.522C215.187,532.007 213.826,529.387 210.962,531.289L210.962,531.289Z" style="fill:rgb(255,0,0);fill-rule:nonzero;stroke:rgb(128,102,0);stroke-width:1.33px;"/>
        </g>
        <path id="rect14038-1-7-4-9-4-8-8-4-5-7-7-6-1-4-2-2-2-12-3" d="M77.684,364.067C79.105,364.985 83.178,367.03 85.992,366.828" style="fill:none;"/>
        <path id="rect14038-6-3-9" d="M211.264,528.709C202.165,512.933 191.971,495.608 180.137,479.282C153.361,442.343 123.029,405.672 99.019,379.491C90.581,370.29 93.79,373.353 91.48,371.225C104.763,385.179 89.698,369.369 103.249,384.61C132.414,417.412 158.524,453.375 179.994,483.054C192.642,500.539 202.036,517.502 209.526,529.901C209.749,529.31 210.106,529.65 211.264,528.709Z" style="fill:rgb(179,179,179);fill-opacity:0.580392;fill-rule:nonzero;"/>
    </g>
</svg>
